apps/web/public/favicon.svg

<svg width="64" height="64" viewBox="0 0 64 64" fill="none" xmlns="http://www.w3.org/2000/svg">
<path d="M27.7143 53V39.9653L16.2857 46.4827L12 39.0173L23.3095 32.5L12 25.9827L16.2857 18.5173L27.7143 25.0347V12H36.4048V25.0347L47.7143 18.5173L52 25.9827L40.6905 32.5L52 39.0173L47.7143 46.4827L36.4048 39.9653V53H27.7143Z" fill="#DEDEE7"/>
</svg>

<svg xmlns="http://www.w3.org/2000/svg" width="64" height="64" fill="none" viewBox="0 0 64 64"><path fill="#dedee7" d="M27.714 53V39.965l-11.428 6.518L12 39.017 23.31 32.5 12 25.983l4.286-7.466 11.428 6.518V12h8.69v13.035l11.31-6.518L52 25.983 40.69 32.5 52 39.017l-4.286 7.466-11.31-6.518V53z"/></svg>
